data/styles/clear/style-night/symbols/optician-m.svg

<svg height="24" viewBox="0 0 24 24" width="24"><g fill="none" fill-rule="evenodd"><circle cx="12" cy="12" fill="#fff" opacity=".4" r="12"/><circle cx="12" cy="12" fill="#4e3552" r="11"/><path d="m18.8712 11.0595602-5.1594667-3.70338193c-.1726666-.11779334-.3117333-.03351018-.3117333.18887552v.56053381c0 .22137024.1409333.492498.3154667.60724496l2.9586666 2.34774304h-9.8317333l.3696-.2122311 3.0725333-2.51935574c.1745334-.1137315.3164-.30565341.3164-.52702364v-.56053381c0-.22137024-.14-.3056534-.3126666-.18887553l-5.2882667 3.79477332v4.3796781c0 .9200066 1.4448 1.7729928 2.94653333 1.7729928 1.4364 0 2.92599997-.7788577 3.25546667-3.0230238.0485333-.3320554.0914667-.6224769.1297333-.885481h1.3365334c.0392.2630041.0812.5534256.1306666.885481.3304 2.2441661 1.8190667 3.0230238 3.2554667 3.0230238 1.5008 0 2.9456-.8519708 2.9456-1.7729928v-4.167447zm-9.05146667 2.6757365c-.06253333.430555-.2548 1.7404981-1.8732 1.7404981-.7476 0-1.33186666-.2985451-1.54653333-.4813279v-2.411717h3.5896c-.0476.3239316-.10453333.7047291-.16986667 1.1525468zm7.78026667 1.2591702c-.2146667.1827828-.7989333.4813279-1.5456.4813279-1.6174667 0-1.8097333-1.3099431-1.8732-1.7404981-.0653333-.4478177-.1222667-.8286152-.1698667-1.1525468h3.5886667z" fill="#fff" opacity=".6"/></g></svg>

<svg width="24" height="24" viewBox="0 0 24 24">
  <g fill="none" fill-rule="evenodd">
    <circle cx="12" cy="12" r="12" fill="#FFF" opacity=".4"/>
    <circle cx="12" cy="12" r="11" fill="#4E3551"/>
    <path fill="#FFF" d="M18.8712,11.0595602 L13.7117333,7.35617827 C13.5390667,7.23838493 13.4,7.32266809 13.4,7.54505379 L13.4,8.1055876 C13.4,8.32695784 13.5409333,8.5980856 13.7154667,8.71283256 L16.6741333,11.0605756 L6.8424,11.0605756 L7.212,10.8483445 L10.2845333,8.32898876 C10.4590667,8.21525726 10.6009333,8.02333535 10.6009333,7.80196512 L10.6009333,7.24143131 C10.6009333,7.02006107 10.4609333,6.93577791 10.2882667,7.05255578 L5,10.8473291 L5,15.2270072 C5,16.1470138 6.4448,17 7.94653333,17 C9.38293333,17 10.8725333,16.2211423 11.202,13.9769762 C11.2505333,13.6449208 11.2934667,13.3544993 11.3317333,13.0914952 L12.6682667,13.0914952 C12.7074667,13.3544993 12.7494667,13.6449208 12.7989333,13.9769762 C13.1293333,16.2211423 14.618,17 16.0544,17 C17.5552,17 19,16.1480292 19,15.2270072 L19,11.0595602 L18.8712,11.0595602 L18.8712,11.0595602 Z M9.81973333,13.7352967 C9.7572,14.1658517 9.56493333,15.4757948 7.94653333,15.4757948 C7.19893333,15.4757948 6.61466667,15.1772497 6.4,14.9944669 L6.4,12.5827499 L9.9896,12.5827499 C9.942,12.9066815 9.88506667,13.287479 9.81973333,13.7352967 L9.81973333,13.7352967 Z M17.6,14.9944669 C17.3853333,15.1772497 16.8010667,15.4757948 16.0544,15.4757948 C14.4369333,15.4757948 14.2446667,14.1658517 14.1812,13.7352967 C14.1158667,13.287479 14.0589333,12.9066815 14.0113333,12.5827499 L17.6,12.5827499 L17.6,14.9944669 L17.6,14.9944669 Z" opacity=".6"/>
  </g>
</svg>
